src/lib/assets/trash_icon.svg

<svg width="62" height="71" viewBox="0 0 62 71" fill="none" xmlns="http://www.w3.org/2000/svg">
<path d="M18.7107 2.45449L17.7143 4.4375H4.42857C1.97902 4.4375 0 6.42051 0 8.875C0 11.3295 1.97902 13.3125 4.42857 13.3125H57.5714C60.021 13.3125 62 11.3295 62 8.875C62 6.42051 60.021 4.4375 57.5714 4.4375H44.2857L43.2893 2.45449C42.542 0.942969 41.0058 0 39.3312 0H22.6687C20.9942 0 19.458 0.942969 18.7107 2.45449V2.45449ZM57.5714 17.75H4.42857L7.3625 64.7598C7.58393 68.2682 10.4902 71 13.9915 71H48.0085C51.5098 71 54.4161 68.2682 54.6375 64.7598L57.5714 17.75Z" fill="white"/>
</svg>

<svg xmlns="http://www.w3.org/2000/svg" width="62" height="71" fill="none"><path fill="#fff" d="m18.71 2.454-.996 1.983H4.43A4.428 4.428 0 0 0 0 8.875a4.428 4.428 0 0 0 4.429 4.438H57.57A4.428 4.428 0 0 0 62 8.875a4.428 4.428 0 0 0-4.429-4.438H44.286l-.997-1.983A4.41 4.41 0 0 0 39.331 0H22.67a4.41 4.41 0 0 0-3.958 2.454ZM57.572 17.75H4.43l2.933 47.01c.222 3.508 3.128 6.24 6.63 6.24h34.016c3.502 0 6.408-2.732 6.63-6.24l2.933-47.01Z"/></svg>
